src/main/resources/icons/UIDesignerIcons/com/intellij/uiDesigner/icons/tree.svg

<svg xmlns="http://www.w3.org/2000/svg" width="16" height="16" viewBox="0 0 16 16"><rect id="frame" width="16" height="16" fill="none"/><path fill="#9AA7B0" fill-opacity=".8" fill-rule="evenodd" d="M10 3h3v4H6V5H3v6h3V9h3l1 1h3v4H6v-2H3v3H2V1h1v3h3V2h3l1 1z"/></svg>

<svg xmlns="http://www.w3.org/2000/svg" width="16" height="16" viewBox="0 0 16 16">
  <path fill="#9AA7B0" fill-opacity=".8" fill-rule="evenodd" d="M10,3 L13,3 L13,7 L6,7 L6,5 L3,5 L3,11 L6,11 L6,10 L6,9 L9.00085449,9 L10,10 L13,10 L13,14 L6,14 L6,12 L3,12 L3,15 L2,15 L2,1 L3,1 L3,4 L6,4 L6,3 L6,2 L9.00085449,2 L10,3 Z"/>
</svg>
